brandFactory_export/1.Light/Ambulancia_1Light.svg

<?xml version="1.0" encoding="UTF-8"?>
<svg width="24px" height="24px" viewBox="0 0 24 24" version="1.1" xmlns="http://www.w3.org/2000/svg" xmlns:xlink="http://www.w3.org/1999/xlink">
    <title>1.Light/Ambulancia_1Light</title>
    <g id="Symbols" stroke="none" stroke-width="1" fill="none" fill-rule="evenodd">
        <g id="1.Light/Ambulancia_1Light" fill="#5CB615" fill-rule="nonzero">
            <path d="M22.6218487,16.5378151 L22.6218487,13.0352941 C22.6117647,12.5983193 22.2420168,12.107563 22.010084,11.8084034 C21.6605042,11.3478992 18.9579832,7.78823529 18.507563,7.14957983 C18.2655462,6.82016807 17.8151261,6.59159664 17.3848739,6.54789916 L17.3848739,15.1260504 C18.9042017,15.3277311 19.8554622,16.2857143 20.0537815,17.8084034 L21.3546218,17.794958 C21.6537815,17.794958 21.9731092,17.6537815 22.2252101,17.405042 C22.4806723,17.1563025 22.6218487,16.8369748 22.6218487,16.5378151 L22.6218487,16.5378151 Z M16.789916,20.7058824 C18.2991597,20.7058824 19.0991597,19.9058824 19.0991597,18.3966387 C19.0991597,16.8773109 18.2991597,16.0773109 16.789916,16.0773109 C15.2672269,16.0773109 14.4672269,16.8773109 14.4672269,18.3966387 C14.4672269,19.9058824 15.2672269,20.7058824 16.789916,20.7058824 L16.789916,20.7058824 Z M13.5159664,17.8084034 C13.7176471,16.2184874 14.7596639,15.2504202 16.389916,15.1058824 L16.389916,3.52941176 C16.389916,3.25042017 16.1176471,3.01848739 15.7882353,3.01848739 L1.6,3.01848739 C1.27058824,3.01848739 1.00168067,3.25042017 1.00168067,3.51932773 L1.00168067,17.287395 C1.00168067,17.5663866 1.27058824,17.7983193 1.6,17.7983193 L1.67058824,17.7983193 C1.88907563,16.0907563 3.06890756,15.0789916 4.93109244,15.0789916 C6.80336134,15.0789916 7.98319328,16.087395 8.20504202,17.7983193 C8.20504202,17.794958 13.5159664,17.8084034 13.5159664,17.8084034 L13.5159664,17.8084034 Z M4.93109244,20.7058824 C6.45378151,20.7058824 7.25378151,19.9058824 7.25378151,18.3966387 C7.25378151,16.8773109 6.45378151,16.0773109 4.93109244,16.0773109 C3.42184874,16.0773109 2.62184874,16.8773109 2.62184874,18.3966387 C2.62184874,19.9058824 3.42184874,20.7058824 4.93109244,20.7058824 Z M22.8033613,11.1966387 C23.112605,11.5966387 23.6134454,12.2588235 23.6235294,13.0386555 L23.6235294,16.5378151 C23.6235294,17.1092437 23.3747899,17.6773109 22.9344538,18.1176471 C22.5008403,18.5478992 21.9226891,18.7966387 21.3613445,18.7966387 L20.0705882,18.8067227 C19.912605,20.6252101 18.7226891,21.7042017 16.789916,21.7042017 C14.8470588,21.7042017 13.6571429,20.6252101 13.4957983,18.8067227 L8.22184874,18.7966387 C8.0605042,20.6252101 6.87058824,21.7042017 4.92773109,21.7042017 C2.99831933,21.7042017 1.80504202,20.6252101 1.64705882,18.7932773 L1.59663866,18.7932773 C0.719327731,18.7966387 0,18.1176471 0,17.287395 L0,3.51932773 C0,2.68907563 0.719327731,2.02016807 1.6,2.02016807 L15.7882353,2.02016807 C16.6689076,2.02016807 17.3882353,2.69915966 17.3882353,3.52941176 L17.3882353,5.54957983 C18.1378151,5.58991597 18.8907563,5.9697479 19.3176471,6.56806723 C19.7714286,7.2 22.4537815,10.7495798 22.8033613,11.1966387 Z M12.6857143,10.3092437 L12.6857143,8.58823529 L10.0537815,8.58823529 C9.78151261,8.59159664 9.55630252,8.37310924 9.55294118,8.09747899 L9.55294118,5.46554622 L7.84201681,5.46554622 L7.83193277,8.08739496 C7.83193277,8.36302521 7.60672269,8.58823529 7.33109244,8.58823529 L4.70252101,8.59831933 L4.70252101,10.3092437 L7.33109244,10.3092437 C7.61344538,10.3092437 7.83193277,10.5378151 7.83193277,10.810084 L7.83193277,13.4386555 L9.55294118,13.4386555 L9.55294118,10.810084 C9.55294118,10.6789916 9.60336134,10.5478992 9.70420168,10.4571429 C9.79159664,10.3596639 9.92268908,10.3092437 10.0537815,10.3092437 L12.6857143,10.3092437 Z M12.7058824,7.58991597 C13.2268908,7.58991597 13.6840336,8 13.6840336,8.47058824 L13.6840336,10.4302521 C13.6840336,10.9008403 13.2235294,11.3109244 12.7058824,11.3109244 L10.5546218,11.3109244 L10.5546218,13.4588235 C10.5546218,13.989916 10.1546218,14.4403361 9.67394958,14.4403361 L7.71428571,14.4403361 C7.23361345,14.4403361 6.83361345,13.989916 6.83361345,13.4588235 L6.83361345,11.3109244 L4.68235294,11.3210084 C4.1512605,11.3210084 3.70084034,10.9109244 3.70084034,10.4403361 L3.70084034,8.47058824 C3.70084034,8.00336134 4.1512605,7.6 4.68235294,7.6 L6.83361345,7.58991597 L6.83361345,5.43865546 C6.83361345,4.91764706 7.24369748,4.46722689 7.71428571,4.46722689 L9.67394958,4.46722689 C10.1445378,4.46722689 10.5546218,4.91764706 10.5546218,5.43865546 L10.5546218,7.58991597 L12.7058824,7.58991597 Z" id="Ambulancia_1Light"></path>
        </g>
    </g>
</svg>

<svg width="24" height="24" viewBox="0 0 24 24" xmlns="http://www.w3.org/2000/svg"><path d="M22.622 16.538v-3.503c-.01-.437-.38-.927-.612-1.227-.35-.46-3.052-4.02-3.502-4.658-.242-.33-.693-.558-1.123-.602v8.578c1.52.202 2.47 1.16 2.669 2.682l1.3-.013c.3 0 .62-.141.871-.39.256-.249.397-.568.397-.867zm-5.832 4.168c1.51 0 2.31-.8 2.31-2.31 0-1.519-.8-2.319-2.31-2.319-1.523 0-2.323.8-2.323 2.32 0 1.509.8 2.309 2.323 2.309zm-3.274-2.898c.202-1.59 1.244-2.558 2.874-2.702V3.529c0-.279-.272-.51-.602-.51H1.6c-.33 0-.598.231-.598.5v13.768c0 .28.269.511.598.511h.07c.22-1.707 1.399-2.719 3.261-2.719 1.872 0 3.052 1.008 3.274 2.72 0-.004 5.311.01 5.311.01zm-8.585 2.898c1.523 0 2.323-.8 2.323-2.31 0-1.519-.8-2.319-2.323-2.319-1.51 0-2.31.8-2.31 2.32 0 1.509.8 2.309 2.31 2.309zm17.872-9.51c.31.4.81 1.063.82 1.843v3.499c0 .571-.248 1.14-.689 1.58-.433.43-1.011.679-1.573.679l-1.29.01c-.158 1.818-1.348 2.897-3.281 2.897-1.943 0-3.133-1.079-3.294-2.897l-5.274-.01c-.161 1.828-1.351 2.907-3.294 2.907-1.93 0-3.123-1.079-3.28-2.91h-.051C.719 18.796 0 18.117 0 17.286V3.52C0 2.69.72 2.02 1.6 2.02h14.188c.88 0 1.6.68 1.6 1.51v2.02c.75.04 1.503.42 1.93 1.018.453.632 3.136 4.182 3.485 4.629zm-10.117-.887V8.59h-2.632a.496.496 0 01-.501-.492V5.466H7.842l-.01 2.621c0 .276-.225.501-.5.501l-2.63.01v1.711h2.63a.5.5 0 01.5.501v2.629h1.72V10.81c0-.131.051-.262.152-.353a.47.47 0 01.35-.148h2.632zm.02-2.72c.52 0 .978.411.978.882v1.96c0 .47-.46.88-.978.88h-2.151v2.148c0 .53-.4.981-.881.981h-1.96c-.48 0-.88-.45-.88-.981V11.31l-2.152.01c-.53 0-.981-.41-.981-.88V8.47c0-.468.45-.871.981-.871l2.152-.01V5.439c0-.521.41-.972.88-.972h1.96c.47 0 .88.45.88.972v2.15h2.152z" fill="#5CB615" fill-rule="nonzero"/></svg>
